packages/kaspersky-hexa-ui-icons/src/iconsSVGs/24/CompGroup.svg

<svg width="24" height="24" viewBox="0 0 24 24" fill="none" xmlns="http://www.w3.org/2000/svg">
<path fill-rule="evenodd" clip-rule="evenodd" d="M8 4.5C8 3.11929 9.11929 2 10.5 2H19.5C20.8807 2 22 3.11929 22 4.5V10.5C22 11.7095 21.1411 12.7184 20 12.95V17.5C20 18.8807 18.8807 20 17.5 20H15.5V21H16C16.5523 21 17 21.4477 17 22C17 22.5523 16.5523 23 16 23H10C9.44772 23 9 22.5523 9 22C9 21.4477 9.44772 21 10 21H10.5V20H8.5C7.11929 20 6 18.8807 6 17.5V16H4.5C3.11929 16 2 14.8807 2 13.5V7.5C2 6.11929 3.11929 5 4.5 5H8V4.5ZM10 5H13.5C14.8807 5 16 6.11929 16 7.5V9H17.5C18.6375 9 19.5976 9.75969 19.9005 10.7994C19.963 10.7159 20 10.6123 20 10.5V4.5C20 4.22386 19.7761 4 19.5 4H10.5C10.2239 4 10 4.22386 10 4.5V5ZM18 11.5C18 11.2239 17.7761 11 17.5 11H8.5C8.22386 11 8 11.2239 8 11.5V17.5C8 17.7761 8.22386 18 8.5 18H17.5C17.7761 18 18 17.7761 18 17.5V11.5ZM13.5 20H12.5V21H13.5V20ZM4.5 7C4.22386 7 4 7.22386 4 7.5V13.5C4 13.7761 4.22386 14 4.5 14H6V11.5C6 10.1193 7.11929 9 8.5 9H14V7.5C14 7.22386 13.7761 7 13.5 7H4.5Z" fill="black"/>
</svg>

<svg xmlns="http://www.w3.org/2000/svg" width="24" height="24" fill="none" viewBox="0 0 24 24"><path fill="#000" fill-rule="evenodd" d="M8 4.5C8 3.1193 9.1193 2 10.5 2h9C20.8807 2 22 3.1193 22 4.5v6c0 1.2095-.8589 2.2184-2 2.45v4.55c0 1.3807-1.1193 2.5-2.5 2.5h-2v1h.5c.5523 0 1 .4477 1 1s-.4477 1-1 1h-6c-.5523 0-1-.4477-1-1s.4477-1 1-1h.5v-1h-2C7.1193 20 6 18.8807 6 17.5V16H4.5C3.1193 16 2 14.8807 2 13.5v-6C2 6.1193 3.1193 5 4.5 5H8zm2 .5h3.5C14.8807 5 16 6.1193 16 7.5V9h1.5c1.1375 0 2.0976.7597 2.4005 1.7994A.498.498 0 0 0 20 10.5v-6a.5.5 0 0 0-.5-.5h-9a.5.5 0 0 0-.5.5zm8 6.5a.5.5 0 0 0-.5-.5h-9a.5.5 0 0 0-.5.5v6a.5.5 0 0 0 .5.5h9a.5.5 0 0 0 .5-.5zM13.5 20h-1v1h1zm-9-13a.5.5 0 0 0-.5.5v6a.5.5 0 0 0 .5.5H6v-2.5C6 10.1193 7.1193 9 8.5 9H14V7.5a.5.5 0 0 0-.5-.5z"/></svg>
